components/Icon/svg/question.svg

<svg xmlns="http://www.w3.org/2000/svg" width="20" height="20" viewBox="0 0 20 20">
<path d="M0.5 19c-0.225 0-0.422-0.15-0.482-0.367s0.032-0.447 0.225-0.562c1.691-1.014 2.392-2.489 2.641-3.179-1.838-1.407-2.884-3.354-2.884-5.392 0-1.029 0.258-2.026 0.768-2.964 0.486-0.894 1.18-1.695 2.061-2.381 1.787-1.39 4.156-2.156 6.671-2.156s4.884 0.766 6.671 2.156c0.881 0.685 1.575 1.486 2.061 2.381 0.51 0.937 0.768 1.934 0.768 2.964s-0.258 2.026-0.768 2.964c-0.486 0.894-1.18 1.695-2.061 2.381-1.787 1.39-4.156 2.156-6.671 2.156-1.033 0-2.047-0.129-3.016-0.385-0.429 0.286-1.231 0.793-2.189 1.27-1.488 0.74-2.764 1.115-3.794 1.115zM9.5 3c-4.687 0-8.5 2.916-8.5 6.5 0 1.815 1.005 3.562 2.756 4.792 0.172 0.121 0.25 0.336 0.196 0.539-0.117 0.436-0.515 1.633-1.58 2.788 1.302-0.456 2.704-1.247 3.739-1.959 0.123-0.085 0.277-0.11 0.421-0.069 0.948 0.271 1.947 0.409 2.968 0.409 4.687 0 8.5-2.916 8.5-6.5s-3.813-6.5-8.5-6.5z" fill="currentColor"></path>
<path d="M9.5 12c-0.276 0-0.5-0.224-0.5-0.5v-2c0-0.276 0.224-0.5 0.5-0.5 0.827 0 1.5-0.673 1.5-1.5s-0.673-1.5-1.5-1.5c-0.827 0-1.5 0.673-1.5 1.5 0 0.276-0.224 0.5-0.5 0.5s-0.5-0.224-0.5-0.5c0-1.378 1.122-2.5 2.5-2.5s2.5 1.122 2.5 2.5c0 1.207-0.86 2.217-2 2.45v1.55c0 0.276-0.224 0.5-0.5 0.5z" fill="currentColor"></path>
<path d="M9.5 14c-0.132 0-0.261-0.053-0.353-0.147s-0.147-0.222-0.147-0.353c0-0.132 0.053-0.261 0.147-0.353s0.222-0.147 0.353-0.147 0.261 0.053 0.353 0.147c0.093 0.093 0.147 0.222 0.147 0.353s-0.053 0.26-0.147 0.353c-0.093 0.093-0.222 0.147-0.353 0.147z" fill="currentColor"></path>
</svg>

<svg xmlns="http://www.w3.org/2000/svg" width="20" height="20" viewBox="0 0 20 20">
  <path fill="currentColor" d="M.5 19a.5.5 0 0 1-.257-.929 6.211 6.211 0 0 0 2.641-3.179C1.046 13.485 0 11.538 0 9.5c0-1.029.258-2.026.768-2.964.486-.894 1.18-1.695 2.061-2.381C4.616 2.765 6.985 1.999 9.5 1.999s4.884.766 6.671 2.156c.881.685 1.575 1.486 2.061 2.381.51.937.768 1.934.768 2.964s-.258 2.026-.768 2.964c-.486.894-1.18 1.695-2.061 2.381-1.787 1.39-4.156 2.156-6.671 2.156-1.033 0-2.047-.129-3.016-.385a20.74 20.74 0 0 1-2.189 1.27c-1.488.74-2.764 1.115-3.794 1.115zm9-16C4.813 3 1 5.916 1 9.5c0 1.815 1.005 3.562 2.756 4.792.172.121.25.336.196.539-.117.436-.515 1.633-1.58 2.788 1.302-.456 2.704-1.247 3.739-1.959a.499.499 0 0 1 .421-.069C7.48 15.862 8.479 16 9.5 16c4.687 0 8.5-2.916 8.5-6.5S14.187 3 9.5 3z"/>
  <path fill="currentColor" d="M9.5 12a.5.5 0 0 1-.5-.5v-2a.5.5 0 0 1 .5-.5c.827 0 1.5-.673 1.5-1.5S10.327 6 9.5 6 8 6.673 8 7.5a.5.5 0 0 1-1 0C7 6.122 8.122 5 9.5 5S12 6.122 12 7.5c0 1.207-.86 2.217-2 2.45v1.55a.5.5 0 0 1-.5.5zm0 2c-.132 0-.261-.053-.353-.147S9 13.631 9 13.5c0-.132.053-.261.147-.353S9.369 13 9.5 13a.498.498 0 0 1 .5.5.5.5 0 0 1-.5.5z"/>
</svg>
